X: 569
P: Longways for as many as will
M: 6/4
L: 1/4
K: C
eAd BGB | c2c c2 |]\
g |\
e>fg a>bc' | g2g g>fe |\
a3 gec | d2d d2e |\
f>ga egG | cAe f2g |\
e>dc dGB | c2c c2 |]

